X:1
T:Title
%%score { ( 1 3 ) | 2 }
L:1/8
M:4/4
K:G
V:1 treble nm="Grand Piano"
V:3 treble 
V:2 treble 
V:1
 z4 z2[Q:1/4=100] DG | BBAB G2 FG | [EA]<[EG] EG D2 GA | BGGB e<d BG | [FA]6 Bc | %5
 dBed B2 [DA][DG] |[M:3/4] [EA]<[EG] EG D2 |[M:1/4] GA | %8
[M:4/4] BG[EGc][EGc] [DGB]<[DGB] [CFA]>[CDA] |[M:3/4] [B,DG]6 |[M:1/4] FG |[M:4/4] A<A AG F<F GA | %12
 B<B DC B,<B, GA | BGGB e<d BG | A6 z2 | d<d GG D<D AB |[M:3/4] c<c AA E<E |[M:1/4] GA | %18
[M:4/4] BG[EGc][EGc] [DGB]<[DGB] [CFA]>[CDA] |[M:7/4] [B,DG]6 z2 z2 z4 |] %20
V:2
 z4 z2 [G,B,][G,B,D] | [G,DG][G,DG][G,CD][K:bass][G,D] [G,B,D]2 [G,A,D][G,B,D] | %2
 [C,C]<[C,C] [C,G,C][E,G,C] [G,B,]2[K:treble] [G,B,D][G,CD] | %3
 [G,DG][G,B,][G,B,][G,DG] [G,CG]<[G,B,G] [G,DG][K:bass][G,B,] | [D,D]6[K:treble] [G,G][G,A,G] | %5
 [G,B,G][G,DG][G,CG][G,B,G] [G,DG]2[K:bass] [B,,G,][B,,G,] | %6
[M:3/4] [C,G,]<[C,G,] [C,G,C][E,G,C] [G,B,]2 |[M:1/4][K:treble] [G,B,D][G,CD] | %8
[M:4/4] [G,DG][K:bass][G,B,]C,C, D,<D, D,>D, |[M:3/4] G,6 |[M:1/4] A,B, | %11
[M:4/4] C<C F,E, D,<D, B,[K:treble]D | G<G B,A, G,<G, [G,B,D][G,CD] | %13
 [G,DG][G,B,D][G,B,D][G,DG] [G,CG]<[G,B,G] [G,DG][K:bass][G,B,] | [D,D]2 [D,D][D,D] [D,D]2 G,A, | %15
 B,<B, B,,B,, B,,<B,, CD |[M:3/4] E<E C,C, C,<C, |[M:1/4][K:treble] [G,B,D][G,CD] | %18
[M:4/4] [G,DG][K:bass][G,B,]C,C, D,<D, D,>D, |[M:7/4] G,6 z2 z2 z4 |] %20
V:3
 x8 | x8 | x8 | x8 | x8 | x8 |[M:3/4] x6 |[M:1/4] x2 |[M:4/4] x8 |[M:3/4] x6 |[M:1/4] x2 | %11
[M:4/4] x8 | x8 | x8 | F2 FF F2 Bc | x8 |[M:3/4] x6 |[M:1/4] x2 |[M:4/4] x8 |[M:7/4] x14 |] %20

